assets/images/postgresql.svg

<svg width="31" height="31" viewBox="0 0 31 31" fill="none" xmlns="http://www.w3.org/2000/svg">
<path d="M21.6055 1.75C20.5051 1.75807 19.4108 1.91363 18.3517 2.2125L18.2767 2.235C17.6096 2.12075 16.9347 2.05765 16.258 2.04625C14.8667 2.0225 13.6705 2.35 12.708 2.89625C11.758 2.57625 9.78798 2.025 7.71173 2.135C6.26548 2.21125 4.68798 2.6375 3.51923 3.835C2.35298 5.0325 1.73673 6.885 1.86673 9.40625C1.90173 10.1025 2.10548 11.2363 2.44548 12.7063C2.78298 14.175 3.26048 15.8937 3.85423 17.4625C4.44798 19.0325 5.09923 20.4425 6.11673 21.4C6.62423 21.88 7.32298 22.2837 8.14673 22.25C8.72548 22.2275 9.24923 21.9812 9.70048 21.6175C9.92048 21.8987 10.1555 22.0212 10.3692 22.135C10.638 22.2775 10.9005 22.375 11.1717 22.44C11.9229 22.6323 12.7052 22.671 13.4717 22.5537C13.8055 22.5 14.1567 22.395 14.5067 22.245C14.5192 22.6225 14.5342 22.9925 14.5505 23.3675C14.598 24.555 14.6292 25.6512 14.9967 26.6125C15.0555 26.77 15.2167 27.5787 15.8555 28.2925C16.493 29.0075 17.743 29.4525 19.1655 29.1575C20.1692 28.9488 21.4467 28.5725 22.2942 27.4025C23.1317 26.245 23.5105 24.5838 23.5855 21.8913C23.6042 21.7463 23.6267 21.6225 23.6505 21.5063L23.8505 21.5238H23.873C24.9442 21.5713 26.1067 21.4237 27.078 20.9862C27.938 20.5987 28.588 20.2087 29.0617 19.515C29.1805 19.3438 29.3105 19.1362 29.3455 18.7775C29.3805 18.4212 29.1705 17.8612 28.8192 17.6037C28.1155 17.0862 27.6742 17.2825 27.2005 17.3787C26.7342 17.4788 26.2592 17.5337 25.7805 17.545C27.1467 15.315 28.1255 12.945 28.6842 10.8475C29.0142 9.61 29.2005 8.46875 29.2155 7.47125C29.2305 6.47375 29.1467 5.59 28.5305 4.825C26.6042 2.4375 23.8955 1.7775 21.8005 1.755C21.7355 1.75375 21.6705 1.7525 21.6055 1.75375V1.75ZM21.5505 2.48375C23.5317 2.465 26.0642 3.005 27.8817 5.25875C28.2905 5.765 28.4117 6.505 28.398 7.4175C28.383 8.32875 28.2092 9.41875 27.8917 10.6137C27.2755 12.9287 26.1105 15.6262 24.4692 18.0487C24.5276 18.0889 24.5906 18.122 24.6567 18.1475C24.9992 18.285 25.7792 18.4025 27.338 18.0925C27.7292 18.0112 28.0167 17.9575 28.3142 18.1775C28.3856 18.2365 28.4422 18.3112 28.4798 18.3958C28.5173 18.4804 28.5346 18.5725 28.5305 18.665C28.5142 18.8047 28.4612 18.9376 28.3767 19.05C28.0767 19.4888 27.4817 19.905 26.7192 20.2475C26.0455 20.5525 25.078 20.7113 24.2205 20.7213C23.7905 20.725 23.3942 20.6925 23.058 20.5912L23.0355 20.5837C22.9055 21.7975 22.6067 24.1963 22.413 25.29C22.2567 26.1725 21.9842 26.8737 21.463 27.3987C20.943 27.9237 20.208 28.24 19.218 28.4463C17.9917 28.7013 17.098 28.4263 16.5217 27.955C15.9467 27.4863 15.683 26.8625 15.5242 26.48C15.4155 26.2175 15.3592 25.8763 15.3042 25.42C15.2438 24.8737 15.2034 24.3255 15.183 23.7763C15.1469 22.813 15.1353 21.8489 15.148 20.885C14.6355 21.34 13.998 21.6425 13.3142 21.7562C12.5017 21.89 11.7742 21.7588 11.3405 21.6538C11.1278 21.6014 10.9222 21.5238 10.728 21.4225C10.5255 21.3188 10.3342 21.2013 10.2067 20.9688C10.1316 20.836 10.1076 20.6804 10.1392 20.5312C10.1801 20.3797 10.2708 20.2462 10.3967 20.1525C10.6317 19.9675 10.9405 19.865 11.4067 19.77C12.2567 19.6012 12.553 19.485 12.733 19.3462C12.8867 19.2275 13.0605 18.9875 13.368 18.6338C13.3665 18.6184 13.3652 18.6029 13.3642 18.5875C12.8159 18.5726 12.2783 18.4319 11.793 18.1763C11.6167 18.3575 10.7117 19.2862 9.60798 20.5737C9.14423 21.1125 8.63173 21.4212 8.09048 21.4437C7.54923 21.4662 7.06048 21.2013 6.64548 20.8113C5.81423 20.0288 5.15173 18.6825 4.57423 17.1613C3.99923 15.6388 3.52923 13.9438 3.19673 12.5C2.86173 11.0563 2.66423 9.8925 2.63673 9.33125C2.51173 6.945 3.08673 5.3375 4.07423 4.32375C5.06173 3.31 6.41423 2.92625 7.73423 2.8525C10.1017 2.72 12.3505 3.52125 12.8055 3.69375C13.6817 3.11625 14.8105 2.75625 16.2217 2.77875C16.8906 2.7879 17.5564 2.87175 18.2067 3.02875L18.2305 3.01875C18.5167 2.92125 18.808 2.83875 19.103 2.77375C19.906 2.59213 20.726 2.49577 21.5492 2.48625V2.48375H21.5505ZM21.7292 3.25125H21.558C20.8817 3.26038 20.2078 3.33404 19.5455 3.47125C20.8602 4.04376 22.0153 4.92853 22.9105 6.04875C23.4526 6.71905 23.9024 7.45897 24.248 8.24875C24.378 8.55125 24.4655 8.8075 24.5142 9.005C24.5392 9.105 24.5567 9.18875 24.5617 9.27625C24.5665 9.33163 24.5619 9.38743 24.548 9.44125L24.5405 9.45625C24.5767 10.46 24.3205 11.14 24.2892 12.0975C24.2655 12.7925 24.448 13.6088 24.493 14.4975C24.5355 15.335 24.4317 16.2537 23.8717 17.1562C23.9192 17.2112 23.9617 17.2662 24.0067 17.3212C25.488 15.0588 26.5567 12.5538 27.1255 10.42C27.4292 9.27 27.5917 8.22875 27.6055 7.40375C27.618 6.57875 27.4592 5.98 27.2567 5.73125C25.6717 3.765 23.528 3.26375 21.7292 3.25V3.25125ZM16.073 3.545C14.6767 3.5475 13.6742 3.9575 12.9155 4.57C12.1317 5.20375 11.6067 6.07 11.2617 6.95875C10.9278 7.84691 10.7236 8.77857 10.6555 9.725L10.6717 9.71625C11.093 9.48625 11.6467 9.2575 12.2392 9.125C12.833 8.9925 13.4717 8.95125 14.0505 9.16875C14.6292 9.3875 15.108 9.89875 15.2817 10.6762C16.113 14.4087 15.023 15.7963 14.6205 16.8425C14.4682 17.2219 14.3375 17.6096 14.2292 18.0037C14.2805 17.9913 14.3317 17.9788 14.3817 17.9738C14.6013 17.9619 14.8204 18.0048 15.0192 18.0988C15.4242 18.2613 15.7017 18.6012 15.8517 18.9913C15.8905 19.0938 15.9192 19.2038 15.9355 19.3162C15.953 19.3638 15.9605 19.4125 15.9592 19.4625C15.9144 20.8897 15.9194 22.3181 15.9742 23.745C16.0017 24.3625 16.0417 24.905 16.093 25.3338C16.143 25.7613 16.2155 26.0862 16.2617 26.1962C16.4117 26.5637 16.633 27.0438 17.033 27.37C17.433 27.695 18.0042 27.9125 19.0505 27.695C19.958 27.5063 20.518 27.245 20.893 26.8663C21.2655 26.49 21.4892 25.9662 21.6317 25.1625C21.8455 23.9587 22.2755 20.47 22.3267 19.8125C22.3042 19.3188 22.3792 18.9375 22.5417 18.6475C22.7105 18.35 22.9705 18.1675 23.1942 18.0688C23.3067 18.0188 23.4117 17.9862 23.498 17.9625C23.4064 17.8351 23.3105 17.7108 23.2105 17.59C22.8882 17.2112 22.6233 16.7871 22.4242 16.3313C22.3292 16.1433 22.2279 15.9587 22.1205 15.7775C21.9642 15.5025 21.7655 15.1588 21.558 14.7725C21.1417 13.9988 20.6892 13.0612 20.4542 12.1475C20.2205 11.2362 20.1855 10.2925 20.7855 9.62625C21.318 9.035 22.2505 8.79 23.6517 8.9275C23.6105 8.8075 23.5855 8.7075 23.5155 8.5475C23.1976 7.82211 22.7844 7.14237 22.2867 6.52625C21.0992 5.05375 19.178 3.59375 16.208 3.54625H16.073V3.545ZM8.22798 3.60375C8.07798 3.60375 7.92798 3.60875 7.77798 3.61625C6.58548 3.6825 5.45798 4.01875 4.65173 4.84875C3.84298 5.6775 3.31173 7.0375 3.42673 9.29C3.45048 9.715 3.64173 10.91 3.96923 12.3275C4.29673 13.7475 4.76173 15.4163 5.31923 16.89C5.87673 18.365 6.55423 19.6488 7.19673 20.2563C7.52048 20.56 7.80173 20.6825 8.05673 20.6725C8.31298 20.66 8.62048 20.5175 8.99798 20.0788C9.68549 19.2743 10.3983 18.4918 11.1355 17.7325C10.6149 17.2955 10.214 16.7333 9.97048 16.0988C9.73014 15.4698 9.65693 14.7894 9.75798 14.1238C9.87923 13.2762 9.89548 12.4837 9.88173 11.8587C9.86673 11.2487 9.82173 10.8437 9.82173 10.59V10.555C9.8206 9.23393 10.0573 7.92345 10.5205 6.68625C10.8505 5.83375 11.343 4.9675 12.0817 4.26625C11.3567 4.035 10.0692 3.6825 8.67548 3.61625C8.5256 3.60843 8.37556 3.60427 8.22548 3.60375H8.22798ZM22.8705 9.65625C22.0692 9.66625 21.6192 9.8675 21.383 10.13C21.048 10.5025 21.0167 11.155 21.2242 11.96C21.4305 12.765 21.858 13.6662 22.2605 14.4137C22.4605 14.7887 22.6555 15.1262 22.813 15.3987C22.9717 15.6737 23.088 15.8687 23.158 16.0363C23.223 16.1888 23.2955 16.3238 23.368 16.45C23.678 15.8138 23.7342 15.19 23.7017 14.5387C23.6605 13.7338 23.468 12.91 23.4967 12.0763C23.528 11.1012 23.7267 10.465 23.7442 9.71125C23.4544 9.67483 23.1626 9.65646 22.8705 9.65625ZM13.1455 9.7875C12.9006 9.78978 12.6567 9.81827 12.418 9.8725C11.9434 9.98425 11.4853 10.1574 11.0555 10.3875C10.9117 10.4625 10.773 10.55 10.643 10.6488L10.618 10.6713C10.6255 10.8387 10.6592 11.245 10.6742 11.8412C10.6867 12.495 10.6717 13.3287 10.5417 14.2288C10.2592 16.1887 11.7242 17.8113 13.4467 17.8137C13.5467 17.4113 13.713 17.0037 13.878 16.5738C14.358 15.32 15.3017 14.4063 14.5067 10.8375C14.3767 10.2538 14.1192 10.0175 13.7642 9.88375C13.5652 9.81553 13.3558 9.78295 13.1455 9.7875ZM22.4955 10.0212H22.5555C22.633 10.0238 22.7055 10.0325 22.768 10.0463C22.8255 10.0577 22.8805 10.0793 22.9305 10.11C22.9531 10.1236 22.9726 10.1417 22.9879 10.1632C23.0032 10.1847 23.0139 10.2092 23.0192 10.235V10.245C23.0212 10.2998 23.0064 10.3539 22.9767 10.4C22.9416 10.4629 22.8979 10.5205 22.8467 10.5712C22.7258 10.7001 22.566 10.7857 22.3917 10.815C22.221 10.8352 22.0488 10.793 21.9067 10.6962C21.8492 10.6589 21.7975 10.6134 21.753 10.5612C21.7148 10.521 21.6888 10.4707 21.678 10.4163C21.6753 10.3895 21.6784 10.3625 21.6871 10.3371C21.6957 10.3117 21.7096 10.2884 21.728 10.2688C21.7672 10.226 21.8143 10.1912 21.8667 10.1663C22.0642 10.0739 22.2788 10.0236 22.4967 10.0187V10.0212H22.4955ZM13.2605 10.2137C13.323 10.2137 13.3892 10.22 13.4567 10.2288C13.6367 10.2537 13.798 10.3 13.9205 10.3687C13.9805 10.4 14.033 10.44 14.078 10.49C14.1013 10.5166 14.1192 10.5477 14.1305 10.5812C14.1417 10.6146 14.1455 10.65 14.1417 10.685C14.1301 10.7512 14.0992 10.8125 14.053 10.8612C14.0045 10.9194 13.9476 10.9699 13.8842 11.0113C13.729 11.1171 13.5407 11.1628 13.3542 11.14C13.1649 11.11 12.9908 11.0181 12.8592 10.8788C12.8038 10.8233 12.7566 10.7602 12.7192 10.6912C12.6803 10.6313 12.6631 10.5598 12.6705 10.4888C12.688 10.3638 12.7942 10.3012 12.8955 10.2638C13.0128 10.2277 13.1354 10.2125 13.258 10.2188L13.2605 10.2137ZM23.9605 18.6287H23.9567C23.783 18.6912 23.6405 18.7162 23.5192 18.7663C23.3986 18.8113 23.2986 18.8989 23.238 19.0125C23.163 19.1438 23.1005 19.3775 23.1192 19.775C23.173 19.8107 23.232 19.8377 23.2942 19.855C23.4955 19.915 23.8342 19.955 24.213 19.9487C24.9655 19.94 25.893 19.77 26.3855 19.5475C26.7892 19.365 27.1642 19.1275 27.4992 18.8425C25.853 19.1725 24.9242 19.085 24.353 18.8563C24.2117 18.7996 24.0794 18.7225 23.9605 18.6275V18.6287ZM14.4755 18.7362H14.4505C14.388 18.7412 14.2967 18.7612 14.1217 18.9513C13.7092 19.3988 13.5667 19.6788 13.2267 19.9412C12.8892 20.2038 12.448 20.3425 11.568 20.5175C11.2892 20.5725 11.1305 20.6337 11.023 20.6825C11.058 20.71 11.0542 20.7175 11.1055 20.7437C11.2342 20.8125 11.4005 20.8725 11.533 20.9062C11.9117 20.9975 12.533 21.105 13.1817 20.9975C13.8292 20.89 14.5042 20.5887 15.0792 19.8062C15.1792 19.6712 15.1892 19.4713 15.108 19.2563C15.0242 19.0438 14.8442 18.8588 14.7167 18.8063C14.6404 18.7711 14.559 18.7483 14.4755 18.7388V18.7362Z" fill="#333333"/>
</svg>

<svg width="31" height="31" viewBox="0 0 31 31" fill="none" xmlns="http://www.w3.org/2000/svg"><path d="M21.605 1.75c-1.1.008-2.194.164-3.253.462l-.075.023a13.285 13.285 0 0 0-2.019-.189c-1.391-.023-2.587.304-3.55.85-.95-.32-2.92-.871-4.996-.761-1.447.076-3.024.503-4.193 1.7-1.166 1.197-1.782 3.05-1.652 5.571.035.696.238 1.83.578 3.3.338 1.469.815 3.188 1.41 4.756.593 1.57 1.244 2.98 2.262 3.938.507.48 1.206.884 2.03.85.578-.023 1.102-.269 1.553-.633.22.282.456.404.67.518.268.142.53.24.802.305a5.76 5.76 0 0 0 2.3.114 4.449 4.449 0 0 0 1.035-.309c.012.377.027.747.043 1.122.048 1.188.08 2.284.447 3.245.059.158.22.967.858 1.68.638.715 1.888 1.16 3.31.865 1.004-.208 2.282-.584 3.13-1.755.837-1.157 1.215-2.818 1.29-5.51a5.16 5.16 0 0 1 .066-.386l.2.018h.022c1.071.047 2.234-.1 3.205-.538.86-.387 1.51-.777 1.984-1.471.118-.171.248-.379.284-.738.035-.356-.175-.916-.527-1.173-.703-.518-1.145-.322-1.618-.225-.467.1-.942.155-1.42.166 1.366-2.23 2.345-4.6 2.903-6.698.33-1.237.517-2.378.531-3.376.015-.997-.068-1.881-.684-2.646-1.927-2.388-4.636-3.048-6.73-3.07-.066-.001-.13-.002-.195-.001V1.75Zm-.055.734c1.982-.019 4.514.521 6.332 2.775.409.506.53 1.246.516 2.159-.015.91-.189 2-.506 3.196-.616 2.315-1.782 5.012-3.423 7.435.059.04.122.073.188.099.342.137 1.122.255 2.681-.055.391-.082.679-.136.976.084a.598.598 0 0 1 .216.488.794.794 0 0 1-.153.385c-.3.439-.895.855-1.658 1.197-.674.305-1.641.464-2.498.474-.43.004-.827-.029-1.163-.13l-.023-.007c-.13 1.213-.428 3.612-.622 4.706-.156.883-.429 1.584-.95 2.109-.52.525-1.255.841-2.245 1.047-1.226.255-2.12-.02-2.696-.491-.575-.469-.839-1.092-.998-1.475-.108-.262-.165-.604-.22-1.06-.06-.546-.1-1.095-.121-1.644a57.114 57.114 0 0 1-.035-2.891 3.67 3.67 0 0 1-1.834.871c-.812.134-1.54.003-1.973-.102a2.743 2.743 0 0 1-.613-.232c-.203-.103-.394-.22-.521-.453a.626.626 0 0 1-.068-.438.7.7 0 0 1 .258-.378c.235-.185.543-.288 1.01-.383.85-.169 1.146-.285 1.326-.424.154-.119.327-.358.635-.712a1.444 1.444 0 0 1-.004-.047 3.58 3.58 0 0 1-1.571-.41c-.176.18-1.081 1.11-2.185 2.397-.464.538-.976.847-1.518.87-.54.022-1.03-.243-1.445-.633-.83-.782-1.493-2.128-2.07-3.65-.576-1.522-1.046-3.217-1.378-4.661-.335-1.444-.533-2.607-.56-3.169-.125-2.386.45-3.993 1.437-5.007.988-1.014 2.34-1.398 3.66-1.471 2.368-.133 4.617.668 5.072.84.876-.577 2.005-.937 3.416-.914a8.977 8.977 0 0 1 1.985.25l.023-.01c.287-.098.578-.18.873-.245a11.702 11.702 0 0 1 2.446-.288v-.002h.002Zm.18.767h-.172c-.676.01-1.35.083-2.012.22A8.81 8.81 0 0 1 22.91 6.05c.543.67.992 1.41 1.338 2.2.13.302.217.558.266.756.025.1.043.184.048.271a.49.49 0 0 1-.014.165l-.007.015c.036 1.004-.22 1.684-.252 2.642-.024.694.159 1.51.204 2.4.043.837-.061 1.756-.621 2.658.047.055.09.11.135.165 1.481-2.262 2.55-4.767 3.118-6.901.304-1.15.467-2.191.48-3.016.013-.825-.146-1.424-.348-1.673-1.585-1.966-3.729-2.467-5.528-2.481v.001Zm-5.657.294c-1.396.002-2.399.413-3.158 1.025-.783.634-1.308 1.5-1.653 2.389a9.875 9.875 0 0 0-.607 2.766l.017-.009c.421-.23.975-.458 1.567-.591.594-.133 1.233-.174 1.811.044.58.218 1.058.73 1.232 1.507.831 3.733-.259 5.12-.662 6.167-.152.379-.282.767-.39 1.16a1.36 1.36 0 0 1 .152-.03c.22-.011.438.032.637.126.405.162.683.502.833.892.038.103.067.213.083.325a.39.39 0 0 1 .024.146 61.397 61.397 0 0 0 .015 4.283c.028.617.068 1.16.119 1.589.05.427.122.752.169.862.15.368.371.848.771 1.174.4.325.971.543 2.017.325.908-.189 1.468-.45 1.843-.829.372-.376.596-.9.739-1.703.213-1.204.643-4.693.695-5.35-.023-.494.052-.875.215-1.165.168-.298.428-.48.652-.58.113-.05.218-.082.304-.106a6.911 6.911 0 0 0-.288-.372 5.08 5.08 0 0 1-.786-1.259 9.405 9.405 0 0 0-.303-.553c-.157-.276-.355-.62-.563-1.005-.416-.774-.869-1.712-1.104-2.625-.233-.912-.268-1.855.331-2.522.533-.591 1.465-.836 2.867-.698-.042-.12-.067-.22-.137-.38a8.904 8.904 0 0 0-1.228-2.022c-1.188-1.472-3.109-2.932-6.079-2.98h-.135v-.001Zm-7.845.059c-.15 0-.3.005-.45.012-1.193.067-2.32.403-3.126 1.233-.809.829-1.34 2.188-1.225 4.441.023.425.215 1.62.542 3.038.328 1.42.793 3.088 1.35 4.562.558 1.475 1.235 2.759 1.878 3.366.323.304.605.427.86.416.256-.012.563-.155.941-.593a48.91 48.91 0 0 1 2.138-2.346c-.521-.438-.922-1-1.166-1.634a3.895 3.895 0 0 1-.212-1.975c.121-.848.137-1.64.124-2.265-.015-.61-.06-1.015-.06-1.269v-.035a11.007 11.007 0 0 1 .699-3.869c.33-.852.822-1.718 1.56-2.42-.724-.231-2.012-.583-3.406-.65-.15-.008-.3-.012-.45-.012h.003Zm14.643 6.052c-.802.01-1.252.211-1.488.474-.335.372-.366 1.025-.159 1.83.206.805.634 1.706 1.037 2.454.2.375.395.712.552.985.159.275.275.47.345.637.065.153.137.288.21.414.31-.636.366-1.26.334-1.911-.042-.805-.234-1.629-.205-2.463.031-.975.23-1.611.247-2.365a7.048 7.048 0 0 0-.873-.055Zm-9.725.131c-.245.003-.49.031-.728.085a5.612 5.612 0 0 0-1.362.515 2.896 2.896 0 0 0-.413.262l-.025.022c.008.168.041.574.056 1.17.013.654-.002 1.488-.132 2.388-.283 1.96 1.182 3.582 2.905 3.585.1-.403.266-.81.431-1.24.48-1.254 1.424-2.168.629-5.737-.13-.583-.388-.82-.743-.953a1.788 1.788 0 0 0-.618-.097Zm9.35.234h.06c.077.003.15.011.212.025a.494.494 0 0 1 .162.064.192.192 0 0 1 .09.125v.01a.268.268 0 0 1-.043.155.766.766 0 0 1-.13.171.807.807 0 0 1-.455.244.713.713 0 0 1-.485-.119.71.71 0 0 1-.154-.135.293.293 0 0 1-.075-.145.187.187 0 0 1 .05-.147.45.45 0 0 1 .139-.103 1.57 1.57 0 0 1 .63-.147v.002h-.002Zm-9.235.193c.062 0 .128.006.196.015.18.025.341.071.463.14a.55.55 0 0 1 .158.121.27.27 0 0 1 .053.091c.01.034.014.069.01.104a.342.342 0 0 1-.088.176.762.762 0 0 1-.169.15.774.774 0 0 1-.53.129.868.868 0 0 1-.495-.261.816.816 0 0 1-.14-.188.312.312 0 0 1-.048-.202c.017-.125.123-.188.225-.225.117-.036.24-.051.362-.045l.003-.005Zm10.7 8.415h-.004c-.174.062-.317.087-.438.137a.528.528 0 0 0-.281.247c-.075.13-.137.364-.119.762a.614.614 0 0 0 .175.08c.201.06.54.1.919.094.752-.009 1.68-.179 2.172-.402.404-.182.78-.42 1.114-.704-1.646.33-2.575.242-3.146.013a1.559 1.559 0 0 1-.393-.229v.002Zm-9.485.107h-.026c-.062.005-.153.025-.328.215-.413.448-.555.728-.895.99-.338.263-.779.402-1.659.576a2.364 2.364 0 0 0-.545.166c.035.027.031.035.082.06.13.07.295.13.428.163.379.091 1 .199 1.649.091.647-.107 1.322-.408 1.897-1.19.1-.136.11-.336.029-.55-.084-.213-.264-.398-.391-.45a.789.789 0 0 0-.242-.068v-.003Z" fill="#333"/></svg>
